X: 43533
T: You Broke My Cup And My Saucer
R: polka
M: 2/4
K: Gmajor
|:B2 B/c/B/A/|GA B>c|BA D2|BD GA|
B2 B/c/B/A/|GA Bd|eg fd|e2 e/f/e/d/:|
|:Bd ef|gb/g/ fe|fd de|fd B/c/B/A/|
Bd ef|gb/g/ fe|fa gf|e2 e/f/e/d/:|

